symbolic/24x24/apps/org.gnome.dfeet.svg

<svg xmlns="http://www.w3.org/2000/svg" width="24" height="24" version="1">
 <path style="opacity:0.2" d="m 14.960938,7.480507 a 2.0002,2.0002 0 0 0 -1.375,0.6054685 L 2.5859375,19.085975 A 2.0002,2.0002 0 1 0 5.4140625,21.9141 L 16.414062,10.914101 A 2.0002,2.0002 0 0 0 14.960938,7.480507 Z"/>
 <path style="fill:none;stroke:#545eba;stroke-width:4;stroke-linecap:round;stroke-linejoin:round" d="M 15,9 4,20 v 0 0"/>
 <path style="opacity:0.1;fill:#ffffff" d="m 14.960938,6.980469 a 2.0002,2.0002 0 0 0 -1.375,0.6054685 L 2.5859375,18.585937 A 2.0002,2.0002 0 0 0 1.9882812,20.27832 2.0002,2.0002 0 0 1 2.5859375,19.085937 L 13.585938,8.0859375 a 2.0002,2.0002 0 0 1 1.375,-0.6054685 2.0002,2.0002 0 0 1 2.041015,1.7480465 2.0002,2.0002 0 0 0 -2.041015,-2.2480465 z"/>
 <rect style="opacity:0.2" width="9.5" height="6" x="-5.72" y="14.32" rx="1" ry="1" transform="rotate(-45)"/>
 <rect style="fill:#4f4f4f" width="9.5" height="6" x="-5.36" y="13.97" rx="1" ry="1" transform="rotate(-45)"/>
 <circle style="opacity:0.2" cx="15" cy="9.5" r="7"/>
 <circle style="fill:#727272" cx="15" cy="9" r="7"/>
 <circle style="opacity:0.2" cx="15" cy="9.5" r="5"/>
 <circle style="fill:#ffffff" cx="15" cy="9" r="5"/>
 <path style="fill:#3f3f3f" d="M 15.813399,6.0007755 C 14.831075,6.0460005 13.315101,8.053681 13.315101,8.053681 l 0.546617,0.71899 c 0,0 3.29249,-1.121166 2.521227,-2.4407815 -0.144611,-0.247428 -0.342856,-0.34155 -0.569546,-0.331114 z m -2.647793,2.175891 c 0,0 -1.043642,0.370968 -0.517269,1.062402 0.559753,0.735282 1.08223,-0.316923 1.08223,-0.316923 z"/>
 <path style="fill:#3f3f3f" d="m 16.677233,9.007036 c -1.047181,0.1139435 -2.686557,1.58276 -2.686557,1.58276 l 0.42269,0.825662 c 0,0 3.570354,-0.495548 3.031183,-1.9671035 -0.134792,-0.367889 -0.418255,-0.4793 -0.767316,-0.4413185 z m -2.860774,1.677397 c 0,0 -1.135525,0.172217 -0.728283,0.966652 0.433068,0.844818 1.164302,-0.110087 1.164302,-0.110087 z"/>
 <path style="opacity:0.1;fill:#ffffff" d="M 15,2 A 7,7 0 0 0 8,9 7,7 0 0 0 8.010742,9.292969 7,7 0 0 1 15,2.5 7,7 0 0 1 21.989258,9.207031 7,7 0 0 0 22,9 7,7 0 0 0 15,2 Z"/>
</svg>

<svg xmlns="http://www.w3.org/2000/svg" width="24" height="24" version="1"><path style="opacity:.2" d="M14.96 7.48a2 2 0 0 0-1.374.606l-11 11a2 2 0 1 0 2.828 2.828l11-11a2 2 0 0 0-1.453-3.433z"/><path style="fill:none;stroke:#545eba;stroke-width:4;stroke-linecap:round;stroke-linejoin:round" d="M15 9 4 20v0"/><path style="opacity:.1;fill:#fff" d="M14.96 6.98a2 2 0 0 0-1.374.606l-11 11a2 2 0 0 0-.598 1.692 2 2 0 0 1 .598-1.192l11-11a2 2 0 0 1 1.375-.606 2 2 0 0 1 2.041 1.749 2 2 0 0 0-2.041-2.249z"/><rect style="opacity:.2" width="9.5" height="6" x="-5.72" y="14.32" rx="1" ry="1" transform="rotate(-45)"/><rect style="fill:#4f4f4f" width="9.5" height="6" x="-5.36" y="13.97" rx="1" ry="1" transform="rotate(-45)"/><circle style="opacity:.2" cx="15" cy="9.5" r="7"/><circle style="fill:#727272" cx="15" cy="9" r="7"/><circle style="opacity:.2" cx="15" cy="9.5" r="5"/><circle style="fill:#fff" cx="15" cy="9" r="5"/><path style="fill:#3f3f3f" d="M15.813 6c-.982.046-2.498 2.054-2.498 2.054l.547.719s3.292-1.121 2.52-2.441c-.144-.248-.342-.342-.569-.331zm-2.647 2.177s-1.044.37-.518 1.062c.56.735 1.083-.317 1.083-.317zM16.677 9.007c-1.047.114-2.686 1.583-2.686 1.583l.422.825s3.57-.495 3.032-1.967c-.135-.368-.419-.479-.768-.441zm-2.86 1.677s-1.136.173-.729.967c.433.845 1.164-.11 1.164-.11z"/><path style="opacity:.1;fill:#fff" d="M15 2a7 7 0 0 0-7 7 7 7 0 0 0 .01.293A7 7 0 0 1 15 2.5a7 7 0 0 1 6.99 6.707A7 7 0 0 0 22 9a7 7 0 0 0-7-7z"/></svg>
